lib/logo_updates/nrk-logo-nrk-tv-title-below-on-dark.svg

<svg width="120" height="104" viewBox="0 0 120 104" fill="none" xmlns="http://www.w3.org/2000/svg">
<path d="M0 43V1.00381H13.7802V43H0ZM32.5283 7.68773L40.4532 43H25.3721L15.9092 1.00381H24.3676C26.3072 0.978642 28.1892 1.66237 29.6607 2.92636C31.1347 4.13734 32.1473 5.81844 32.5283 7.68773ZM42.5233 43V1.00381H56.3035V43H42.5233ZM66.7116 16.9743C65.2267 16.9888 63.7656 16.6003 62.4839 15.8504C61.2193 15.1194 60.1688 14.0689 59.438 12.8041C58.6872 11.5222 58.2986 10.0607 58.3134 8.57511C58.2964 7.09861 58.6853 5.64583 59.438 4.3755C60.1766 3.12447 61.2259 2.08533 62.4839 1.35882C63.766 0.609758 65.2269 0.221301 66.7116 0.234844C68.1877 0.218947 69.6399 0.607751 70.9108 1.35882C72.1562 2.09169 73.1943 3.12996 73.9271 4.3755C74.6789 5.64618 75.0677 7.09873 75.0517 8.57511C75.0655 10.0605 74.6769 11.5218 73.9271 12.8041C73.202 14.0633 72.1627 15.113 70.9108 15.8504C69.6398 16.6029 68.1866 16.9918 66.7097 16.9743H66.7116ZM77.1807 43V1.00381H90.9621V43H77.1807ZM108.408 23.9538C108.447 23.9946 108.742 24.4776 109.295 25.403C109.848 26.3283 110.567 27.5114 111.454 28.952C112.341 30.392 113.277 31.9199 114.262 33.536C115.247 35.1521 116.174 36.6803 117.043 38.1202C117.908 39.5602 118.894 41.1867 120 43H104.859C103.912 41.4621 103.055 40.0721 102.286 38.83C101.517 37.5878 100.7 36.2471 99.8334 34.8077C98.9653 33.3698 98.1071 31.9699 97.2587 30.6081C96.4103 29.2464 95.6813 28.0536 95.0714 27.0297C94.459 26.0051 94.0348 25.3149 93.7989 24.9594C93.2139 24.0771 92.8677 23.058 92.7944 22.0019C92.853 20.9883 93.1791 20.0084 93.7397 19.1619C93.9762 18.7676 94.41 18.0675 95.0409 17.062C95.6717 16.0564 96.411 14.8637 97.2587 13.4835C98.1064 12.1034 98.9647 10.6936 99.8334 9.25431C100.702 7.81501 101.519 6.46432 102.286 5.20247C103.056 3.94193 103.914 2.54205 104.859 1.00285H120L108.289 20.1082C107.926 20.6755 107.722 21.3292 107.697 22.0019C107.736 22.7081 107.983 23.3871 108.406 23.9538H108.408Z" fill="white"/>
<path d="M0 66.2669H13.6367V102.936H19.8894V66.2669H33.4666V61.0791H0V66.2669Z" fill="#8BB5EB"/>
<path d="M66.3377 61.0791L57.4649 87.1362C57.0262 88.4725 56.5793 89.8874 56.124 91.3808C55.6688 92.8743 55.2325 94.3678 54.8149 95.8612C54.5986 96.6322 54.3912 97.3763 54.1927 98.0936C53.9842 97.336 53.7649 96.5559 53.5346 95.7433C53.096 94.2106 52.649 92.6876 52.1938 91.1745C51.7386 89.6614 51.2721 88.2367 50.7944 86.9004L42.1002 61.0791H35.4307L50.0798 102.936H57.8212L72.5298 61.0791H66.3377Z" fill="#8BB5EB"/>
</svg>

<svg xmlns="http://www.w3.org/2000/svg" viewBox="0 0 120 104"><path fill="#fff" d="M0 43V1.004h13.78V43H0ZM32.528 7.688 40.453 43h-15.08L15.908 1.004h8.459a7.965 7.965 0 0 1 5.293 1.922 8.31 8.31 0 0 1 2.867 4.762ZM42.523 43V1.004h13.78V43h-13.78Zm24.189-26.026a8.213 8.213 0 0 1-4.228-1.124 8.336 8.336 0 0 1-3.046-3.046 8.206 8.206 0 0 1-1.125-4.229 8.056 8.056 0 0 1 1.125-4.2 8.437 8.437 0 0 1 3.046-3.016A8.232 8.232 0 0 1 66.712.235a8.083 8.083 0 0 1 4.199 1.124 8.503 8.503 0 0 1 3.016 3.016 8.075 8.075 0 0 1 1.125 4.2 8.226 8.226 0 0 1-1.125 4.23 8.4 8.4 0 0 1-3.016 3.045 8.059 8.059 0 0 1-4.201 1.124h.002ZM77.18 43V1.004h13.781V43H77.181Zm31.227-19.046c.039.04.334.524.887 1.449.553.925 1.272 2.108 2.159 3.549a1143.28 1143.28 0 0 1 5.589 9.168A854.89 854.89 0 0 0 120 43h-15.141c-.947-1.538-1.804-2.928-2.573-4.17a382.214 382.214 0 0 1-2.453-4.022 351.934 351.934 0 0 0-2.574-4.2 213.445 213.445 0 0 1-2.188-3.578 62.753 62.753 0 0 0-1.272-2.07 6.119 6.119 0 0 1-1.005-2.958 5.744 5.744 0 0 1 .946-2.84c.236-.394.67-1.095 1.3-2.1.632-1.006 1.371-2.198 2.219-3.579.847-1.38 1.706-2.79 2.574-4.229.869-1.439 1.686-2.79 2.453-4.052.77-1.26 1.628-2.66 2.573-4.2H120l-11.711 19.106a3.773 3.773 0 0 0-.592 1.894c.039.706.286 1.385.709 1.952h.002Z"/><path fill="#8BB5EB" d="M0 66.267h13.637v36.669h6.252v-36.67h13.578V61.08H0v5.188ZM66.338 61.08l-8.873 26.056a209.576 209.576 0 0 0-2.65 8.725c-.216.771-.424 1.515-.622 2.233-.209-.758-.428-1.538-.658-2.35a352.362 352.362 0 0 0-1.341-4.57 88.202 88.202 0 0 0-1.4-4.274L42.1 61.08h-6.67l14.65 41.856h7.741L72.53 61.079h-6.192Z"/></svg>
